svg/OSM-icons/shop #ac39ac °ffffff !label=enshops,deLäden/29202;shop=window_blind;!name=;[shop];!label=enwindow blinds,deMarkisen- fachgeschäft.svg

<svg xmlns="http://www.w3.org/2000/svg" viewBox="0 0 580 580" enable-background="new 0 0 580 580"><path fill="#111" stroke="#eee" stroke-width="3.408" d="m66.28 1.768c-41.34 0-64.57 21.371-64.57 65.04v450.12c0 40.844 20.895 62.23 62.19 62.23h452.02c41.31 0 62.23-20.315 62.23-62.23v-450.12c0-42.602-20.923-65.04-63.52-65.04-.003 0-448.5-.143-448.35 0z"/><path fill="#fff" d="m524.97 116.58v-48.979h-469.94v48.979h14.09v397.38h441.77v-10.882h1.045l-1.045-2.809v-52.02h1.045l-1.045-3.24v-57.853h1.045l-1.045-3.24v-57.85h1.045l-1.045-3.24v-57.852h1.045l-1.045-3.24v-57.852h1.045l-1.045-3.24v-57.852h1.045l-1.045-1.807v-24.404h14.09zm-17.219 74.35l-10.977-34.04h-413.55l15.15 46.994h409.37v48.14l-10.977-34.04h-413.55l15.15 46.994h409.37v48.14l-10.977-34.04h-413.55l15.15 46.994h409.37v48.14l-10.977-34.04h-413.55l15.15 46.994h409.37v48.14l-10.977-34.04h-413.55l15.15 46.994h409.37v43.599l-10.977-29.501h-413.55l15.15 40.729h409.37v7.749h-435.5v-394.25h10.976l15.15 26.21h409.37v48.14m0-55.36l-10.977-18.985h10.977v18.985"/></svg>

<?xml version="1.0" encoding="utf-8"?>
<!-- Generator: Adobe Illustrator 15.0.0, SVG Export Plug-In . SVG Version: 6.00 Build 0)  -->
<!DOCTYPE svg PUBLIC "-//W3C//DTD SVG 1.1//EN" "http://www.w3.org/Graphics/SVG/1.1/DTD/svg11.dtd">
<svg version="1.1" xmlns="http://www.w3.org/2000/svg" xmlns:xlink="http://www.w3.org/1999/xlink" x="0px" y="0px" width="580px"
	 height="580px" viewBox="0 0 580 580" enable-background="new 0 0 580 580" xml:space="preserve">
<g id="Layer_1">
	<g id="Layer_2">
		<g id="g1327">
			<path id="path1329" fill="#111111" stroke="#EEEEEE" stroke-width="3.408" d="M66.275,1.768
				c-41.335,0-64.571,21.371-64.571,65.036v450.123c0,40.844,20.895,62.229,62.192,62.229h452.024
				c41.307,0,62.229-20.315,62.229-62.229V66.804c0-42.602-20.923-65.036-63.521-65.036C514.625,1.768,66.133,1.625,66.275,1.768z"
				/>
		</g>
	</g>
</g>
<g id="Layer_2_1_">
	<path fill="#FFFFFF" d="M524.969,116.582V67.603H55.03v48.979h14.087v397.38h441.766v-10.882h1.045l-1.045-2.809v-52.018h1.045
		l-1.045-3.24v-57.853h1.045l-1.045-3.24V326.07h1.045l-1.045-3.24v-57.852h1.045l-1.045-3.24v-57.852h1.045l-1.045-3.24v-57.852
		h1.045l-1.045-1.807v-24.404H524.969z M507.75,190.93l-10.977-34.039H83.226l15.153,46.994H507.75v48.137l-10.977-34.039H83.226
		l15.153,46.994H507.75v48.137l-10.977-34.039H83.226l15.153,46.994H507.75v48.137l-10.977-34.039H83.226l15.153,46.994H507.75
		V435.3l-10.977-34.039H83.226l15.153,46.994H507.75v43.599l-10.977-29.501H83.226l15.153,40.729H507.75v7.749H72.25V116.582h10.976
		l15.153,26.211H507.75V190.93z M507.75,135.567l-10.977-18.985h10.977V135.567z"/>
</g>
</svg>
